public/img/svg/clock.svg

<?xml version="1.0" encoding="iso-8859-1"?>
<!-- Generator: Adobe Illustrator 19.0.0, SVG Export Plug-In . SVG Version: 6.00 Build 0)  -->
<svg version="1.1" id="Layer_1" xmlns="http://www.w3.org/2000/svg" xmlns:xlink="http://www.w3.org/1999/xlink" x="0px" y="0px"
	 viewBox="0 0 299.995 299.995" style="enable-background:new 0 0 299.995 299.995;" xml:space="preserve">
<g>
	<g>
		<path d="M149.995,0C67.156,0,0,67.158,0,149.995s67.156,150,149.995,150s150-67.163,150-150S232.834,0,149.995,0z
			 M214.842,178.524H151.25c-0.215,0-0.415-0.052-0.628-0.06c-0.213,0.01-0.412,0.06-0.628,0.06
			c-5.729,0-10.374-4.645-10.374-10.374V62.249c0-5.729,4.645-10.374,10.374-10.374s10.374,4.645,10.374,10.374v95.527h54.47
			c5.729,0,10.374,4.645,10.374,10.374C225.212,173.879,220.571,178.524,214.842,178.524z"/>
	</g>
</g>
<g>
</g>
<g>
</g>
<g>
</g>
<g>
</g>
<g>
</g>
<g>
</g>
<g>
</g>
<g>
</g>
<g>
</g>
<g>
</g>
<g>
</g>
<g>
</g>
<g>
</g>
<g>
</g>
<g>
</g>
</svg>

<svg width="300" height="300" viewBox="0 0 300 300" fill="none" xmlns="http://www.w3.org/2000/svg">
<g clip-path="url(#clip0_50_100)">
<path d="M149.995 0C67.156 0 0 67.158 0 149.995C0 232.832 67.156 299.995 149.995 299.995C232.834 299.995 299.995 232.832 299.995 149.995C299.995 67.158 232.834 0 149.995 0ZM214.842 178.524H151.25C151.035 178.524 150.835 178.472 150.622 178.464C150.409 178.474 150.21 178.524 149.994 178.524C144.265 178.524 139.62 173.879 139.62 168.15V62.249C139.62 56.52 144.265 51.875 149.994 51.875C155.723 51.875 160.368 56.52 160.368 62.249V157.776H214.838C220.567 157.776 225.212 162.421 225.212 168.15C225.212 173.879 220.571 178.524 214.842 178.524Z" fill="white"/>
</g>
<defs>
<clipPath id="clip0_50_100">
<rect width="299.995" height="299.995" fill="white"/>
</clipPath>
</defs>
</svg>
